picto/construction-site.svg

<svg class="color-immutable" width="24" height="24" viewBox="0 0 24 24" fill="none" xmlns="http://www.w3.org/2000/svg"><g clip-path="url(#a)"><path d="M0 22.5v-21C0 .675.675 0 1.5 0h21c.825 0 1.5.675 1.5 1.5v21c0 .825-.675 1.5-1.5 1.5h-21C.675 24 0 23.325 0 22.5Z" fill="#2D327D"/><path d="M19.811 15.311c-.583-.583-1.464-.657-1.957-.164l-1.518 1.518-3.586-2.629V7.5a1.5 1.5 0 0 0-1.5-1.5H7.875a.562.562 0 0 0-.46.24L5.617 8.804l-.145-.106a.374.374 0 1 0-.444.604l.158.116-.006.009a.563.563 0 0 0 .913.657l.793.582.416-.625-.778-.572 1.644-2.344h1.53l-2.695 4.043a1.49 1.49 0 0 0-.172.349l-.003.009-2.829 8.487a.75.75 0 1 0 1.421.474l2.496-7.488L9 16.61v3.64a.75.75 0 0 0 1.5 0v-3.738l-.001-.05v-.003l-.002-.033-.001-.013-.003-.022-.004-.024-.002-.011-.007-.034v-.002a.7.7 0 0 0-.014-.049l-1.013-3.375.046-.065 2.127-3.19v3.568l-1.295-.95-.416.625 1.711 1.255v.485a.562.562 0 0 0 1.047.283l3.105 2.277a2.604 2.604 0 0 1-.363.232l-.829.415a1.884 1.884 0 0 0-.56.468L12 21h9v-4.5l-1.189-1.189ZM13.5 6.75a1.5 1.5 0 1 0-.001-3.001A1.5 1.5 0 0 0 13.5 6.75Z" fill="#fff"/></g><defs><clipPath id="a"><path fill="#fff" d="M0 0h24v24H0z"/></clipPath></defs></svg>

<svg class="color-immutable" width="24" height="24" viewBox="0 0 24 24" fill="none" xmlns="http://www.w3.org/2000/svg"><path d="M0 22.5V1.5C0 0.675 0.675 0 1.5 0H22.5C23.325 0 24 0.675 24 1.5V22.5C24 23.325 23.325 24 22.5 24H1.5C0.675 24 0 23.325 0 22.5Z" fill="#2D327D"/><path d="M19.811 15.311C19.228 14.728 18.347 14.654 17.854 15.147C17.513 15.488 16.766 16.235 16.336 16.665L12.75 14.036V7.5C12.749 7.016 12.515 6.541 12.082 6.252C11.826 6.081 11.536 6 11.25 6C11.246 6 11.242 6 11.238 6H7.875C7.685 6 7.517 6.095 7.415 6.24L5.617 8.804L5.472 8.698C5.305 8.575 5.07 8.611 4.948 8.778C4.825 8.945 4.861 9.18 5.028 9.302L5.186 9.418L5.18 9.427C5.002 9.681 5.063 10.032 5.318 10.211C5.416 10.28 5.529 10.313 5.64 10.313C5.813 10.313 5.984 10.233 6.093 10.084L6.886 10.666L7.302 10.041L6.524 9.469L8.168 7.125H9.698L7.003 11.168C6.929 11.279 6.872 11.396 6.831 11.517C6.83 11.52 6.829 11.523 6.828 11.526L3.999 20.013C3.868 20.406 4.08 20.831 4.473 20.962C4.551 20.988 4.631 21 4.709 21C5.023 21 5.316 20.801 5.42 20.487L7.916 12.999L9 16.61V20.25C9 20.664 9.336 21 9.75 21C10.164 21 10.5 20.664 10.5 20.25V16.512C10.5 16.495 10.5 16.479 10.499 16.462C10.499 16.461 10.499 16.46 10.499 16.459C10.498 16.448 10.498 16.437 10.497 16.426C10.497 16.422 10.496 16.417 10.496 16.413C10.495 16.406 10.494 16.398 10.493 16.391C10.492 16.383 10.49 16.375 10.489 16.367C10.488 16.363 10.488 16.36 10.487 16.356C10.485 16.345 10.482 16.334 10.48 16.322C10.48 16.321 10.48 16.321 10.48 16.32C10.476 16.303 10.471 16.287 10.466 16.271L9.453 12.896C9.469 12.875 9.484 12.853 9.499 12.831L11.626 9.641V13.209L10.331 12.259L9.915 12.884L11.626 14.139V14.624C11.626 14.935 11.878 15.186 12.188 15.186C12.395 15.186 12.576 15.074 12.673 14.907L15.778 17.184C15.655 17.276 15.521 17.363 15.415 17.416L14.586 17.831C14.402 17.923 14.149 18.134 14.026 18.299L12 21H21V16.5L19.811 15.311Z" fill="white"/><path d="M13.5 6.75C14.328 6.75 15 6.078 15 5.25C15 4.422 14.328 3.75 13.5 3.75C12.672 3.75 12 4.422 12 5.25C12 6.078 12.672 6.75 13.5 6.75Z" fill="white"/></svg>
